X:20
T: Tanhuser
N: A0022
O: Europa, Mitteleuropa, Schweiz
N: Aus der Schweiz nach  muendlicher Ueberlieferung 1830 durch
N: Prof. Stalder aufgezeichnet.
R: Romanze, Ballade, Lied
M: 3/4
L: 1/8
K: C
G, | CB,C2D2 | B,^F,G,3
C | FGFEC2 | D2E2z
C | EFG3C | DEF3
C | ECD2C2 | B,2C2z

@@@ Tune index: 20
